X:544
T: "Die Muellerin"
N: Z1224
O: Europa, Mitteleuropa, Deutschland, Boehmen
R: Liebes - Lied
M: 3/8
L: 1/16
K: G
D2 | G2G2GA | B2B2B2 | A2B2c2 | B2
B2B2 | A2B2c2 | B2B2B2 | A2A2A2 | A2G2
G2 | G2F2F2 | G2B2B2 |
B2A2A2 | A2G2G2 | G2F2F2 | G4

@@@ Tune index: 10302
